X:348
T: Yangguang zhaoliang tuzuren
N: C1849
O: China,Qinghai Huzu
S: I, 217, 2)]
N: Tu
R: Wuge, Anzhao]
M: 3/4
L: 1/8
K: G
GAB4 | ABG4 | ABd2e2 | E2F4 | E2D2z2 |
E2D2EE | GAB4 | ABG4 | A2G2E2 | D4z2

@@@ Tune index: 6903
